X: 9
T: No_108_He_Is_Gone.krn
%%abc-version 2.0
%%abcx-abcm2ps-target-version 5.9.1 (29 Sep 2008)
%%abc-creator hum2abc beta
%%abcx-conversion-date 2020/08/10 18:54:57
%%humdrum-veritas 1292637572
%%humdrum-veritas-data 992382941
%%linebreak <none>
%%barnumbers 0
L: 1/4
M: 2/4
K: Bb clef=bass
[K:clef=bass][M:2/4]D2- | 
DC/B,/ ||  
[M:3/4]D>DB, | 
G,3- ||  
[M:2/4]G,2 | 
D2- | 
D3/C//B,// | 
C2- | 
C/>B,/F, | 
G,2- | 
G,F, ||  
[M:3/4]D,3- ||  
[M:2/4]D,2 | 
D2- | 
DB, ||  
[M:3/4]D2B, | 
G,3- ||  
[M:2/4]G,2 | 
B,D | 
C2- | 
CF, ||  
[M:3/4]G,2F, | 
D,3- ||  
[M:2/4]D,2 | 
G,2- | 
G,F,/F,/ ||  
[M:3/4]G,>G,F, | 
D,3- ||  
[M:2/4]D,2 |]  


